public/img/telegram.svg

<svg width="24" height="24" viewBox="0 0 24 24" fill="#B9D6F2" xmlns="http://www.w3.org/2000/svg">
<path d="M12 0C5.37097 0 0 5.37097 0 12C0 18.629 5.37097 24 12 24C18.629 24 24 18.629 24 12C24 5.37097 18.629 0 12 0ZM17.5645 8.1629C17.3855 10.0597 16.6016 14.6661 16.2048 16.7903C16.0355 17.6903 15.7065 17.9903 15.3871 18.0194C14.6903 18.0823 14.1629 17.5597 13.4855 17.1145C12.4306 16.4226 11.8306 15.9919 10.8097 15.3145C9.62419 14.5355 10.3935 14.1048 11.0661 13.4032C11.2452 13.2194 14.3129 10.4274 14.371 10.1758C14.3806 10.1419 14.3855 10.0258 14.3129 9.9629C14.2403 9.9 14.1387 9.92419 14.0661 9.93871C13.9597 9.96129 12.2726 11.0758 9.00484 13.2823C8.52742 13.6113 8.09355 13.771 7.70323 13.7613C7.27258 13.7516 6.45 13.5194 5.83548 13.321C5.08548 13.079 4.48548 12.9484 4.53871 12.5323C4.56452 12.3161 4.8629 12.0952 5.43387 11.8694C8.93064 10.3468 11.2629 9.34194 12.4306 8.85484C15.7645 7.47097 16.4565 7.22903 16.9065 7.21935C17.0081 7.21935 17.2258 7.24355 17.371 7.35968C17.4657 7.44297 17.5261 7.55853 17.5403 7.68387C17.5665 7.84212 17.5746 8.00282 17.5645 8.1629Z"/>
</svg>

<svg xmlns="http://www.w3.org/2000/svg" width="24" height="24" fill="#C1B4A3"><path d="M12 0a12 12 0 1 0 0 24 12 12 0 0 0 0-24Zm5.56 8.16c-.17 1.9-.96 6.5-1.36 8.63-.16.9-.5 1.2-.81 1.23-.7.06-1.23-.46-1.9-.9-1.06-.7-1.66-1.13-2.68-1.8-1.19-.78-.42-1.22.26-1.92.18-.18 3.24-2.97 3.3-3.22.01-.04.02-.15-.06-.22-.07-.06-.17-.04-.24-.02-.11.02-1.8 1.14-5.07 3.34-.47.33-.9.5-1.3.48a8.64 8.64 0 0 1-1.86-.44c-.75-.24-1.35-.37-1.3-.79.02-.21.32-.43.9-.66 3.5-1.52 5.82-2.53 7-3.02 3.32-1.38 4.02-1.62 4.47-1.63.1 0 .32.02.46.14.1.08.16.2.17.32.03.16.03.32.02.48Z"/></svg>
